assets/images/afrikons/flower-outline.svg

<svg viewBox="0 0 50 49.99" xmlns="http://www.w3.org/2000/svg"><g fill="none"><path d="m29.29 35.34a16.4 16.4 0 0 0 -3.51-8.47 16.42 16.42 0 0 0 3.51 8.47z"/><path d="m24.22 26.88a16.53 16.53 0 0 0 -3.51 8.47 16.46 16.46 0 0 0 3.51-8.47z"/><path d="m14.64 29.28a16.46 16.46 0 0 0 8.49-3.51 16.49 16.49 0 0 0 -8.49 3.51z"/><path d="m35.35 29.28a16.42 16.42 0 0 0 -8.47-3.51 16.4 16.4 0 0 0 8.47 3.51z"/><path d="m35.35 20.71a16.4 16.4 0 0 0 -8.46 3.5 16.5 16.5 0 0 0 8.46-3.5z"/><path d="m25.78 23.11a16.36 16.36 0 0 0 3.51-8.47 16.46 16.46 0 0 0 -3.51 8.47z"/><path d="m20.72 14.64a16.43 16.43 0 0 0 3.5 8.47 16.45 16.45 0 0 0 -3.5-8.47z"/><path d="m30.7 13.09a17.81 17.81 0 0 1 -2.26 8.47 17.77 17.77 0 0 1 8.46-2.26 16.5 16.5 0 0 0 4.62-10.83 16.5 16.5 0 0 0 -10.82 4.62z"/><path d="m14.65 20.7a16.46 16.46 0 0 0 8.47 3.51 16.53 16.53 0 0 0 -8.47-3.51z"/><path d="m37.44 20.61a17.74 17.74 0 0 1 -7.58 4.39 17.85 17.85 0 0 1 7.59 4.39 16.48 16.48 0 0 0 10.91-4.39 16.48 16.48 0 0 0 -10.92-4.39z"/><path d="m36.9 30.69a17.77 17.77 0 0 1 -8.46-2.26 17.77 17.77 0 0 1 2.26 8.46 16.51 16.51 0 0 0 10.82 4.63 16.45 16.45 0 0 0 -4.62-10.83z"/><path d="m29.39 37.44a17.85 17.85 0 0 1 -4.39-7.59 17.83 17.83 0 0 1 -4.38 7.59 16.43 16.43 0 0 0 4.38 10.92 16.49 16.49 0 0 0 4.39-10.92z"/><path d="m20.62 12.55a17.71 17.71 0 0 1 4.38 7.59 17.73 17.73 0 0 1 4.39-7.59 16.49 16.49 0 0 0 -4.39-10.92 16.43 16.43 0 0 0 -4.38 10.92z"/><path d="m13.1 19.29a17.82 17.82 0 0 1 8.47 2.27 17.82 17.82 0 0 1 -2.27-8.47 16.5 16.5 0 0 0 -10.82-4.62 16.45 16.45 0 0 0 4.62 10.82z"/><path d="m19.3 36.9a17.82 17.82 0 0 1 2.27-8.47 17.81 17.81 0 0 1 -8.47 2.26 16.45 16.45 0 0 0 -4.62 10.83 16.48 16.48 0 0 0 10.82-4.62z"/><path d="m12.55 29.38a17.82 17.82 0 0 1 7.6-4.38 17.71 17.71 0 0 1 -7.59-4.38 16.43 16.43 0 0 0 -10.92 4.38 16.47 16.47 0 0 0 10.91 4.38z"/></g><path d="m24 25c-.26 0-.53 0-.8-.07l.34.07-.34.07z" fill="#0a0a0a"/><path d="m25.07 23.15-.07.34-.06-.34c0 .26 0 .53.06.8 0-.27 0-.54.07-.8z" fill="#0a0a0a"/><path d="m24.94 26.84.06-.35.07.35c0-.27-.05-.54-.07-.81 0 .27 0 .54-.06.81z" fill="#0a0a0a"/><path d="m26 25 .81.07-.31-.07.35-.07c-.27.07-.54.07-.85.07z" fill="#0a0a0a"/><path d="m25.74 25.73c.18.2.35.41.52.62l-.2-.3.29.2z" fill="#0a0a0a"/><path d="m24.27 25.73c-.2.18-.41.35-.62.52l.29-.2-.19.3c.17-.21.34-.42.52-.62z" fill="#0a0a0a"/><path d="m25.74 24.26c.2-.18.41-.35.62-.52l-.3.19.2-.29c-.17.21-.34.42-.52.62z" fill="#0a0a0a"/><path d="m24.27 24.26c-.18-.2-.35-.41-.52-.62l.19.29-.29-.19c.21.17.42.34.62.52z" fill="#0a0a0a"/><path d="m49.8 24.52a17.87 17.87 0 0 0 -11.19-5.17 17.83 17.83 0 0 0 4.26-11.56.67.67 0 0 0 -.67-.67 17.85 17.85 0 0 0 -11.56 4.26 17.84 17.84 0 0 0 -5.17-11.19.68.68 0 0 0 -.94 0 17.84 17.84 0 0 0 -5.17 11.19 17.83 17.83 0 0 0 -11.56-4.26.67.67 0 0 0 -.67.67 17.83 17.83 0 0 0 4.26 11.56 17.87 17.87 0 0 0 -11.19 5.17.66.66 0 0 0 0 .95 17.8 17.8 0 0 0 11.18 5.16 17.87 17.87 0 0 0 -4.25 11.57.67.67 0 0 0 .67.67 17.83 17.83 0 0 0 11.56-4.26 17.87 17.87 0 0 0 5.17 11.19.68.68 0 0 0 .94 0 17.87 17.87 0 0 0 5.17-11.19 17.85 17.85 0 0 0 11.56 4.26.67.67 0 0 0 .67-.67 17.87 17.87 0 0 0 -4.25-11.57 17.8 17.8 0 0 0 11.18-5.16.66.66 0 0 0 0-.95zm-24.8 2-.06.35c0-.27 0-.54.06-.81 0 .27 0 .54.07.81zm0-3 .07-.34c0 .26-.05.53-.07.8 0-.27 0-.54-.06-.8zm1.26 2.86c-.17-.21-.34-.42-.52-.62l.61.52-.29-.2zm-2.61-.1c.21-.17.42-.34.62-.52-.18.2-.35.41-.52.62l.19-.3zm-.49-1.33c.27 0 .54.06.8.07l-.8.07.34-.09zm.59-1.28c.17.21.34.42.52.62-.2-.18-.41-.35-.62-.52l.29.19zm2.61.1c-.21.17-.42.34-.62.52.18-.2.35-.41.52-.62l-.2.29zm.49 1.32-.85-.09c.27 0 .54 0 .81-.07l-.31.07zm0-.85a16.4 16.4 0 0 1 8.46-3.5 16.5 16.5 0 0 1 -8.42 3.47zm2.4-9.57a16.36 16.36 0 0 1 -3.51 8.47 16.46 16.46 0 0 1 3.55-8.5zm-5.07 8.47a16.43 16.43 0 0 1 -3.5-8.47 16.45 16.45 0 0 1 3.54 8.44zm-1.1 1.1a16.46 16.46 0 0 1 -8.47-3.51 16.53 16.53 0 0 1 8.51 3.48zm0 1.56a16.46 16.46 0 0 1 -8.49 3.51 16.49 16.49 0 0 1 8.54-3.54zm-2.42 9.58a16.53 16.53 0 0 1 3.51-8.47 16.46 16.46 0 0 1 -3.46 8.44zm5.07-8.48a16.4 16.4 0 0 1 3.51 8.47 16.42 16.42 0 0 1 -3.46-8.5zm1.1-1.1a16.42 16.42 0 0 1 8.47 3.51 16.4 16.4 0 0 1 -8.42-3.54zm1.56-4.21a17.81 17.81 0 0 0 2.26-8.47 16.5 16.5 0 0 1 10.87-4.65 16.5 16.5 0 0 1 -4.62 10.83 17.77 17.77 0 0 0 -8.46 2.26zm-3.39-1.45a17.71 17.71 0 0 0 -4.38-7.59 16.43 16.43 0 0 1 4.38-10.92 16.49 16.49 0 0 1 4.39 10.92 17.73 17.73 0 0 0 -4.39 7.59zm-3.43 1.42a17.82 17.82 0 0 0 -8.47-2.27 16.45 16.45 0 0 1 -4.62-10.82 16.5 16.5 0 0 1 10.82 4.62 17.82 17.82 0 0 0 2.27 8.47zm-1.42 3.44a17.82 17.82 0 0 0 -7.6 4.39 16.47 16.47 0 0 1 -10.91-4.39 16.43 16.43 0 0 1 10.92-4.38 17.71 17.71 0 0 0 7.59 4.38zm1.42 3.44a17.82 17.82 0 0 0 -2.27 8.46 16.48 16.48 0 0 1 -10.82 4.62 16.45 16.45 0 0 1 4.62-10.83 17.81 17.81 0 0 0 8.47-2.26zm3.43 1.41a17.85 17.85 0 0 0 4.39 7.59 16.49 16.49 0 0 1 -4.39 10.92 16.43 16.43 0 0 1 -4.38-10.92 17.83 17.83 0 0 0 4.38-7.59zm3.44-1.42a17.77 17.77 0 0 0 8.46 2.26 16.45 16.45 0 0 1 4.62 10.83 16.51 16.51 0 0 1 -10.82-4.63 17.77 17.77 0 0 0 -2.26-8.46zm1.42-3.43a17.74 17.74 0 0 0 7.58-4.38 16.48 16.48 0 0 1 10.92 4.38 16.48 16.48 0 0 1 -10.91 4.39 17.85 17.85 0 0 0 -7.59-4.39z" fill="#212121"/></svg>

<svg xmlns="http://www.w3.org/2000/svg" viewBox="0 0 50 49.99"><defs><style>.cls-1{fill:none;}.cls-2{fill:#0a0a0a;}.cls-3{fill:#212121;}</style></defs><title>flower-outline</title><g id="Layer_2" data-name="Layer 2"><g id="Layer_1-2" data-name="Layer 1"><path class="cls-1" d="M29.29,35.34a16.4,16.4,0,0,0-3.51-8.47A16.42,16.42,0,0,0,29.29,35.34Z"/><path class="cls-1" d="M24.22,26.88a16.53,16.53,0,0,0-3.51,8.47A16.46,16.46,0,0,0,24.22,26.88Z"/><path class="cls-1" d="M14.64,29.28a16.46,16.46,0,0,0,8.49-3.51A16.49,16.49,0,0,0,14.64,29.28Z"/><path class="cls-1" d="M35.35,29.28a16.42,16.42,0,0,0-8.47-3.51A16.4,16.4,0,0,0,35.35,29.28Z"/><path class="cls-1" d="M35.35,20.71a16.4,16.4,0,0,0-8.46,3.5A16.5,16.5,0,0,0,35.35,20.71Z"/><path class="cls-1" d="M25.78,23.11a16.36,16.36,0,0,0,3.51-8.47A16.46,16.46,0,0,0,25.78,23.11Z"/><path class="cls-1" d="M20.72,14.64a16.43,16.43,0,0,0,3.5,8.47A16.45,16.45,0,0,0,20.72,14.64Z"/><path class="cls-1" d="M30.7,13.09a17.81,17.81,0,0,1-2.26,8.47A17.77,17.77,0,0,1,36.9,19.3,16.5,16.5,0,0,0,41.52,8.47,16.5,16.5,0,0,0,30.7,13.09Z"/><path class="cls-1" d="M14.65,20.7a16.46,16.46,0,0,0,8.47,3.51A16.53,16.53,0,0,0,14.65,20.7Z"/><path class="cls-1" d="M37.44,20.61A17.74,17.74,0,0,1,29.86,25a17.85,17.85,0,0,1,7.59,4.39A16.48,16.48,0,0,0,48.36,25,16.48,16.48,0,0,0,37.44,20.61Z"/><path class="cls-1" d="M36.9,30.69a17.77,17.77,0,0,1-8.46-2.26,17.77,17.77,0,0,1,2.26,8.46,16.51,16.51,0,0,0,10.82,4.63A16.45,16.45,0,0,0,36.9,30.69Z"/><path class="cls-1" d="M29.39,37.44A17.85,17.85,0,0,1,25,29.85a17.83,17.83,0,0,1-4.38,7.59A16.43,16.43,0,0,0,25,48.36,16.49,16.49,0,0,0,29.39,37.44Z"/><path class="cls-1" d="M20.62,12.55A17.71,17.71,0,0,1,25,20.14a17.73,17.73,0,0,1,4.39-7.59A16.49,16.49,0,0,0,25,1.63,16.43,16.43,0,0,0,20.62,12.55Z"/><path class="cls-1" d="M13.1,19.29a17.82,17.82,0,0,1,8.47,2.27,17.82,17.82,0,0,1-2.27-8.47A16.5,16.5,0,0,0,8.48,8.47,16.45,16.45,0,0,0,13.1,19.29Z"/><path class="cls-1" d="M19.3,36.9a17.82,17.82,0,0,1,2.27-8.47,17.81,17.81,0,0,1-8.47,2.26A16.45,16.45,0,0,0,8.48,41.52,16.48,16.48,0,0,0,19.3,36.9Z"/><path class="cls-1" d="M12.55,29.38A17.82,17.82,0,0,1,20.15,25a17.71,17.71,0,0,1-7.59-4.38A16.43,16.43,0,0,0,1.64,25,16.47,16.47,0,0,0,12.55,29.38Z"/><path class="cls-2" d="M24,25c-.26,0-.53,0-.8-.07l.34.07-.34.07Z"/><path class="cls-2" d="M25.07,23.15l-.07.34-.06-.34c0,.26,0,.53.06.8C25,23.68,25,23.41,25.07,23.15Z"/><path class="cls-2" d="M24.94,26.84l.06-.35.07.35c0-.27-.05-.54-.07-.81C25,26.3,25,26.57,24.94,26.84Z"/><path class="cls-2" d="M26,25l.81.07L26.5,25l.35-.07C26.58,25,26.31,25,26,25Z"/><path class="cls-2" d="M25.74,25.73c.18.2.35.41.52.62l-.2-.3.29.2Z"/><path class="cls-2" d="M24.27,25.73c-.2.18-.41.35-.62.52l.29-.2-.19.3C23.92,26.14,24.09,25.93,24.27,25.73Z"/><path class="cls-2" d="M25.74,24.26c.2-.18.41-.35.62-.52l-.3.19.2-.29C26.09,23.85,25.92,24.06,25.74,24.26Z"/><path class="cls-2" d="M24.27,24.26c-.18-.2-.35-.41-.52-.62l.19.29-.29-.19C23.86,23.91,24.07,24.08,24.27,24.26Z"/><path class="cls-3" d="M49.8,24.52a17.87,17.87,0,0,0-11.19-5.17A17.83,17.83,0,0,0,42.87,7.79a.67.67,0,0,0-.67-.67,17.85,17.85,0,0,0-11.56,4.26A17.84,17.84,0,0,0,25.47.19a.68.68,0,0,0-.94,0,17.84,17.84,0,0,0-5.17,11.19A17.83,17.83,0,0,0,7.8,7.12a.67.67,0,0,0-.67.67,17.83,17.83,0,0,0,4.26,11.56A17.87,17.87,0,0,0,.2,24.52a.66.66,0,0,0,0,.95,17.8,17.8,0,0,0,11.18,5.16A17.87,17.87,0,0,0,7.13,42.2a.67.67,0,0,0,.67.67,17.83,17.83,0,0,0,11.56-4.26A17.87,17.87,0,0,0,24.53,49.8a.68.68,0,0,0,.94,0,17.87,17.87,0,0,0,5.17-11.19A17.85,17.85,0,0,0,42.2,42.87a.67.67,0,0,0,.67-.67,17.87,17.87,0,0,0-4.25-11.57A17.8,17.8,0,0,0,49.8,25.47.66.66,0,0,0,49.8,24.52Zm-24.8,2-.06.35c0-.27,0-.54.06-.81,0,.27,0,.54.07.81Zm0-3,.07-.34c0,.26-.05.53-.07.8,0-.27,0-.54-.06-.8Zm1.26,2.86c-.17-.21-.34-.42-.52-.62l.61.52-.29-.2Zm-2.61-.1c.21-.17.42-.34.62-.52-.18.2-.35.41-.52.62l.19-.3Zm-.49-1.33c.27,0,.54.06.8.07l-.8.07L23.5,25Zm.59-1.28c.17.21.34.42.52.62-.2-.18-.41-.35-.62-.52l.29.19Zm2.61.1c-.21.17-.42.34-.62.52.18-.2.35-.41.52-.62l-.2.29Zm.49,1.32L26,25c.27,0,.54,0,.81-.07L26.5,25Zm0-.85a16.4,16.4,0,0,1,8.46-3.5A16.5,16.5,0,0,1,26.89,24.21Zm2.4-9.57a16.36,16.36,0,0,1-3.51,8.47A16.46,16.46,0,0,1,29.29,14.64Zm-5.07,8.47a16.43,16.43,0,0,1-3.5-8.47A16.45,16.45,0,0,1,24.22,23.11Zm-1.1,1.1a16.46,16.46,0,0,1-8.47-3.51A16.53,16.53,0,0,1,23.12,24.21Zm0,1.56a16.46,16.46,0,0,1-8.49,3.51A16.49,16.49,0,0,1,23.13,25.77Zm-2.42,9.58a16.53,16.53,0,0,1,3.51-8.47A16.46,16.46,0,0,1,20.71,35.35Zm5.07-8.48a16.4,16.4,0,0,1,3.51,8.47A16.42,16.42,0,0,1,25.78,26.87Zm1.1-1.1a16.42,16.42,0,0,1,8.47,3.51A16.4,16.4,0,0,1,26.88,25.77Zm1.56-4.21a17.81,17.81,0,0,0,2.26-8.47A16.5,16.5,0,0,1,41.52,8.47,16.5,16.5,0,0,1,36.9,19.3,17.77,17.77,0,0,0,28.44,21.56ZM25,20.14a17.71,17.71,0,0,0-4.38-7.59A16.43,16.43,0,0,1,25,1.63a16.49,16.49,0,0,1,4.39,10.92A17.73,17.73,0,0,0,25,20.14Zm-3.43,1.42a17.82,17.82,0,0,0-8.47-2.27A16.45,16.45,0,0,1,8.48,8.47,16.5,16.5,0,0,1,19.3,13.09,17.82,17.82,0,0,0,21.57,21.56ZM20.15,25a17.82,17.82,0,0,0-7.6,4.39A16.47,16.47,0,0,1,1.64,25a16.43,16.43,0,0,1,10.92-4.38A17.71,17.71,0,0,0,20.15,25Zm1.42,3.44A17.82,17.82,0,0,0,19.3,36.9,16.48,16.48,0,0,1,8.48,41.52,16.45,16.45,0,0,1,13.1,30.69,17.81,17.81,0,0,0,21.57,28.43ZM25,29.85a17.85,17.85,0,0,0,4.39,7.59A16.49,16.49,0,0,1,25,48.36a16.43,16.43,0,0,1-4.38-10.92A17.83,17.83,0,0,0,25,29.85Zm3.44-1.42a17.77,17.77,0,0,0,8.46,2.26,16.45,16.45,0,0,1,4.62,10.83A16.51,16.51,0,0,1,30.7,36.89,17.77,17.77,0,0,0,28.44,28.43ZM29.86,25a17.74,17.74,0,0,0,7.58-4.38A16.48,16.48,0,0,1,48.36,25a16.48,16.48,0,0,1-10.91,4.39A17.85,17.85,0,0,0,29.86,25Z"/></g></g></svg>
